gama.ui.shared/icons_svg/dark/gaml/_model.svg

<?xml version="1.0" encoding="UTF-8" standalone="no"?>
<!DOCTYPE svg PUBLIC "-//W3C//DTD SVG 1.1//EN" "http://www.w3.org/Graphics/SVG/1.1/DTD/svg11.dtd">
<svg xmlns:dc="http://purl.org/dc/elements/1.1/" xmlns:xl="http://www.w3.org/1999/xlink" version="1.1" xmlns="http://www.w3.org/2000/svg" viewBox="-21.587094 -2834.0862 24 18" width="24" height="18">
  <defs/>
  <g id="SOURCES" stroke-dasharray="none" stroke="none" stroke-opacity="1" fill="none" fill-opacity="1">
    <title>SOURCES</title>
    <g id="SOURCES_New">
      <title>New</title>
      <g id="Group_10500">
        <g id="Graphic_10179"/>
        <g id="Group_10078">
          <title>earth-alt</title>
          <g id="Graphic_10079">
            <path d="M -15.469094 -2831.3232 C -18.535094 -2830.8962 -20.887094 -2828.2642 -20.887094 -2825.0862 C -20.887094 -2821.6072 -18.066094 -2818.7862 -14.587094 -2818.7862 C -11.108094 -2818.7862 -8.287094 -2821.6072 -8.287094 -2825.0862 C -8.287094 -2825.5692 -8.343094 -2826.0382 -8.441094 -2826.4862 L -9.687094 -2826.4862 L -9.687094 -2826.1362 C -9.687094 -2825.9402 -9.841094 -2825.7862 -10.037094 -2825.7862 L -11.087094 -2825.7862 L -11.087094 -2825.5832 L -10.492094 -2824.9882 C -10.352094 -2824.8482 -10.352094 -2824.6312 -10.492094 -2824.4912 L -11.787094 -2823.1962 L -11.787094 -2821.9432 C -11.787094 -2821.8872 -11.801094 -2821.8382 -11.822094 -2821.7892 L -12.522094 -2820.3892 L -12.585094 -2820.2982 L -13.285094 -2819.5982 C -13.425094 -2819.4582 -13.642094 -2819.4582 -13.782094 -2819.5982 L -14.482094 -2820.2982 C -14.545094 -2820.3612 -14.587094 -2820.4522 -14.587094 -2820.5432 L -14.587094 -2822.4962 L -15.182094 -2823.0912 C -15.245094 -2823.1542 -15.287094 -2823.2452 -15.287094 -2823.3362 L -15.287094 -2823.8892 L -15.847094 -2824.4492 L -17.198094 -2825.1212 L -17.289094 -2825.1842 L -17.989094 -2825.8842 C -18.129094 -2826.0242 -18.129094 -2826.2412 -17.989094 -2826.3812 L -17.394094 -2826.9762 L -17.394094 -2827.5292 C -17.394094 -2827.7252 -17.240094 -2827.8792 -17.044094 -2827.8792 L -15.791094 -2827.8792 L -15.196094 -2828.4742 C -15.056094 -2828.6142 -14.839094 -2828.6142 -14.699094 -2828.4742 L -14.041094 -2827.8162 L -12.767094 -2827.1792 L -12.298094 -2827.1792 L -11.801094 -2827.6762 L -11.801094 -2828.0892 L -12.396094 -2828.6842 C -12.459094 -2828.7472 -12.501094 -2828.8382 -12.501094 -2828.9292 L -12.501094 -2829.2792 L -13.201094 -2829.2792 L -13.201094 -2828.9292 C -13.201094 -2828.7332 -13.355094 -2828.5792 -13.551094 -2828.5792 L -14.251094 -2828.5792 C -14.342094 -2828.5792 -14.433094 -2828.6142 -14.496094 -2828.6842 L -15.091094 -2829.2792 L -15.644094 -2829.2792 C -15.959094 -2829.2792 -16.113094 -2829.6572 -15.889094 -2829.8742 L -15.294094 -2830.4692 L -15.294094 -2830.9382 L -15.476094 -2831.3092 Z M -14.720094 -2831.3862 L -14.622094 -2831.1972 C -14.601094 -2831.1482 -14.587094 -2831.0922 -14.587094 -2831.0432 L -14.587094 -2830.3432 C -14.587094 -2830.2522 -14.622094 -2830.1612 -14.692094 -2830.0982 L -14.818094 -2829.9722 C -14.769094 -2829.9582 -14.727094 -2829.9302 -14.692094 -2829.8952 L -14.097094 -2829.3002 L -13.894094 -2829.3002 L -13.894094 -2829.6502 C -13.894094 -2829.8462 -13.740094 -2830.0002 -13.544094 -2830.0002 L -12.144094 -2830.0002 C -11.948094 -2830.0002 -11.794094 -2829.8462 -11.794094 -2829.6502 L -11.794094 -2829.0972 L -11.199094 -2828.5022 C -11.136094 -2828.4392 -11.094094 -2828.3482 -11.094094 -2828.2572 L -11.094094 -2827.5572 C -11.094094 -2827.4662 -11.129094 -2827.3752 -11.199094 -2827.3122 L -11.899094 -2826.6122 C -11.962094 -2826.5492 -12.053094 -2826.5072 -12.144094 -2826.5072 L -12.844094 -2826.5072 C -12.900094 -2826.5072 -12.949094 -2826.5212 -12.998094 -2826.5422 L -14.398094 -2827.2422 L -14.489094 -2827.3052 L -14.944094 -2827.7602 L -15.399094 -2827.3052 C -15.462094 -2827.2422 -15.553094 -2827.2002 -15.644094 -2827.2002 L -16.694094 -2827.2002 L -16.694094 -2826.8502 C -16.694094 -2826.7592 -16.729094 -2826.6682 -16.799094 -2826.6052 L -17.254094 -2826.1502 L -16.841094 -2825.7372 L -15.490094 -2825.0652 L -15.399094 -2825.0022 L -14.699094 -2824.3022 C -14.636094 -2824.2392 -14.594094 -2824.1482 -14.594094 -2824.0572 L -14.594094 -2823.5042 L -13.999094 -2822.9092 C -13.936094 -2822.8462 -13.894094 -2822.7552 -13.894094 -2822.6642 L -13.894094 -2820.7112 L -13.544094 -2820.3612 L -13.131094 -2820.7742 L -12.494094 -2822.0482 L -12.494094 -2823.3642 C -12.494094 -2823.4552 -12.459094 -2823.5462 -12.389094 -2823.6092 L -11.234094 -2824.7642 L -11.689094 -2825.2192 C -11.752094 -2825.2822 -11.794094 -2825.3732 -11.794094 -2825.4642 L -11.794094 -2826.1642 C -11.794094 -2826.3602 -11.640094 -2826.5142 -11.444094 -2826.5142 L -10.394094 -2826.5142 L -10.394094 -2826.8642 C -10.394094 -2827.0602 -10.240094 -2827.2142 -10.044094 -2827.2142 L -8.651094 -2827.2142 C -9.519094 -2829.6642 -11.850094 -2831.4142 -14.594094 -2831.4142 C -14.636094 -2831.4142 -14.685094 -2831.4142 -14.727094 -2831.4142 Z M -14.587094 -2818.0862 C -18.451094 -2818.0862 -21.587094 -2821.2222 -21.587094 -2825.0862 C -21.587094 -2828.9502 -18.451094 -2832.0862 -14.587094 -2832.0862 C -10.723094 -2832.0862 -7.587094 -2828.9502 -7.587094 -2825.0862 C -7.587094 -2821.2222 -10.723094 -2818.0862 -14.587094 -2818.0862 Z" fill="#999"/>
          </g>
        </g>
      </g>
    </g>
  </g>
</svg>

<svg height="18" viewBox="-21.587 -2834.086 24 18" width="24" xmlns="http://www.w3.org/2000/svg"><path d="m-15.469094-2831.3232c-3.066.427-5.418 3.059-5.418 6.237 0 3.479 2.821 6.3 6.3 6.3s6.3-2.821 6.3-6.3c0-.483-.056-.952-.154-1.4h-1.246v.35c0 .196-.154.35-.35.35h-1.05v.203l.595.595c.14.14.14.357 0 .497l-1.295 1.295v1.253c0 .056-.014.105-.035.154l-.7 1.4-.063.091-.7.7c-.14.14-.357.14-.497 0l-.7-.7c-.063-.063-.105-.154-.105-.245v-1.953l-.595-.595c-.063-.063-.105-.154-.105-.245v-.553l-.56-.56-1.351-.672-.091-.063-.7-.7c-.14-.14-.14-.357 0-.497l.595-.595v-.553c0-.196.154-.35.35-.35h1.253l.595-.595c.14-.14.357-.14.497 0l.658.658 1.274.637h.469l.497-.497v-.413l-.595-.595c-.063-.063-.105-.154-.105-.245v-.35h-.7v.35c0 .196-.154.35-.35.35h-.7c-.091 0-.182-.035-.245-.105l-.595-.595h-.553c-.315 0-.469-.378-.245-.595l.595-.595v-.469l-.182-.371zm.749-.063.098.189c.021.049.035.105.035.154v.7c0 .091-.035.182-.105.245l-.126.126c.049.014.091.042.126.077l.595.595h.203v-.35c0-.196.154-.35.35-.35h1.4c.196 0 .35.154.35.35v.553l.595.595c.063.063.105.154.105.245v.7c0 .091-.035.182-.105.245l-.7.7c-.063.063-.154.105-.245.105h-.7c-.056 0-.105-.014-.154-.035l-1.4-.7-.091-.063-.455-.455-.455.455c-.063.063-.154.105-.245.105h-1.05v.35c0 .091-.035.182-.105.245l-.455.455.413.413 1.351.672.091.063.7.7c.063.063.105.154.105.245v.553l.595.595c.063.063.105.154.105.245v1.953l.35.35.413-.413.637-1.274v-1.316c0-.091.035-.182.105-.245l1.155-1.155-.455-.455c-.063-.063-.105-.154-.105-.245v-.7c0-.196.154-.35.35-.35h1.05v-.35c0-.196.154-.35.35-.35h1.393c-.868-2.45-3.199-4.2-5.943-4.2-.042 0-.091 0-.133 0zm.133 13.3c-3.864 0-7-3.136-7-7s3.136-7 7-7 7 3.136 7 7-3.136 7-7 7z" fill="#999"/></svg>
